X:98
T:Morrison's
Z: id:dc-jig-80
M:6/8
L:1/8
K:E Dorian
E3 B3|E3 AFD|E3 B3|dcB AFD|!
E3 B3|E3 AFD|GBG FGA|dAG FED:|!
Bee fee|aee fee|Bee fee|a2g fed|!
Bee fee|aee fee|gfe d2A|BAG FED|!
Bee fee|aee fee|Bee fee|a2g fef|!
g3 gfe|def g2d|edc d2A|BAG FED|]!

